X:1
T: Miss Mercer's Reel
C:R. Mackintosh
R:Jig
Q: 180
K:G
M:6/8
L:1/8
|:e1/2f1/2|gfe dBG|F1/2G1/2AA A2c|Bcd efg|fge afd|
gfe dBG|F1/2G1/2AA A2c|BdB cAF|G3 G2:|
|:D1/2C1/2|B,DG FAc|Bdg fac'|bgf eag|fdd d2d|
cea Bdg|Ace dBG|EcB AGF|G3 G2:|
